hoohoo_web/public/Images/1p_right_side_half_circle.svg

<svg height="922" preserveAspectRatio="xMidYMid meet" viewBox="0 0 411.75 691.499984" width="549" xmlns="http://www.w3.org/2000/svg" xmlns:xlink="http://www.w3.org/1999/xlink" zoomAndPan="magnify"><clipPath id="a"><path d="m72 1h339.386719v690h-339.386719zm0 0"/></clipPath><g clip-path="url(#a)"><path d="m411.445312 1.09375v3.695312h-1.351562c-118.0625.570313-232.300781 68.425782-290.691406 173.171876-55.667969 99.855468-57.640625 227.398437-3.433594 329.625 46.492188 87.683593 132.828125 153.738281 230.765625 173.175781 21.304687 4.230469 43.007813 6.257812 64.710937 6.171875v3.265625c-63.875-.167969-127.898437-18.148438-182.035156-53.242188-74.644531-48.390625-129.113281-126.753906-148.695312-214.238281-26.234375-117.210938 11.78125-246.957031 101.125-330.59375 61.132812-57.226562 143.722656-90.621094 228.246094-91.03125zm0 11.097656v3.691406h-1.3125c-114.253906.558594-224.742187 66.203126-281.238281 167.539063-53.808593 96.511719-55.964843 220.34375-2.859375 319.785156 45.597656 85.371094 130.394532 149.253907 225.773438 167.238281 19.679687 3.710938 39.664062 5.453126 59.636718 5.3125v3.90625h-.269531c-99.21875 0-196.59375-48.242187-258.015625-127.75-69.597656-90.09375-89.179687-216.164062-48.671875-324.496093 45.902344-122.753907 166.757813-214.550781 305.628907-215.226563zm0 10.738282v3.695312h-1.28125c-112.542968.542969-221.019531 66.382812-274.847656 167.148438-50.527344 94.59375-50.4375 214.613281 3.230469 310.214843 44.421875 79.128907 124.023437 138.109375 213.273437 155.527344 19.644532 3.839844 39.636719 5.632813 59.625 5.476563v3.449218c-59.851562-.144531-119.789062-17.019531-170.527343-49.910156-69.722657-45.207031-120.570313-118.273438-139.058594-199.703125-21.007813-92.507813.109375-193.828125 57.847656-269.957031 58.351563-76.949219 152.488281-125.464844 250.445313-125.941406zm0 10.390624v3.699219h-1.246093c-108.183594.519531-213.550781 63.710938-265.902344 161.707031-55.789063 104.421876-46.394531 240.828126 27.558594 337.152344 56.308593 73.347656 146.636719 118.964844 239.320312 118.964844l.269531-.003906v3.480468c-75.992187-.433593-151.945312-29.664062-208.175781-82.3125-62.519531-58.519531-99.058593-143.46875-99.328125-229.066406-.324218-102.765625 52.332032-204.878906 139.34375-262.796875 49.0625-32.660156 107.730469-50.535156 166.898438-50.824219zm0 10.054688v3.695312h-1.214843c-118.722657.570313-231.933594 79.085938-274.257813 194.421876-40.335937 109.898437-11.492187 242.039062 76.507813 324.421874 53.238281 49.839844 125.722656 78.261719 198.964843 78.671876v3.628906c-88.054687-.683594-175.730468-41.683594-231.957031-112.707032-73.164062-92.425781-86.355469-227.78125-29.761719-333.734374 49.875-93.375 150.007813-157.863282 260.492188-158.398438zm0 9.734375v3.691406h-1.1875c-100.25.484375-197.335937 58.191407-246.789062 147.527344-33.976562 61.375-44.667969 135.375-29.695312 204.242187 19.703124 90.652344 85.167968 170.410157 171.675781 205.773438 33.585937 13.726562 69.785156 20.398438 105.996093 20.238281v3.6875c-54.609374-.140625-109.285156-15.617187-155.351562-45.683593-63.71875-41.585938-109.800781-109.011719-125.933594-183.226563-21.585937-99.332031 11.308594-208.789063 86.265625-278.949219 51.929688-48.605468 122.046875-76.957031 193.824219-77.300781zm0 9.410156v3.699219h-1.152343c-110.804688.535156-217.535157 74.253906-256.980469 182.765625-37.296875 102.582031-10.464844 225.738281 71.898438 302.835937 49.957031 46.769532 117.777343 73.292969 186.234374 73.652344v3.863282h-.269531c-112.800781 0-221.367187-75.253907-261.339843-185.199219-37.71875-103.757813-10.601563-228.679688 72.851562-306.796875 50.316406-47.101563 118.125-74.480469 187.589844-74.820313z" fill="#374e25" fill-rule="evenodd"/></g></svg>

<svg xmlns="http://www.w3.org/2000/svg" xmlns:xlink="http://www.w3.org/1999/xlink" width="549" zoomAndPan="magnify" viewBox="0 0 411.75 691.499984" height="922" preserveAspectRatio="xMidYMid meet" version="1.0"><defs><clipPath id="a12cc9adcf"><path d="M 72 1 L 411.386719 1 L 411.386719 691 L 72 691 Z M 72 1 " clip-rule="nonzero"/></clipPath></defs><g clip-path="url(#a12cc9adcf)"><path fill="#374e25" d="M 411.445312 1.09375 L 411.445312 4.789062 L 410.09375 4.789062 C 292.03125 5.359375 177.792969 73.214844 119.402344 177.960938 C 63.734375 277.816406 61.761719 405.359375 115.96875 507.585938 C 162.460938 595.269531 248.796875 661.324219 346.734375 680.761719 C 368.039062 684.992188 389.742188 687.019531 411.445312 686.933594 L 411.445312 690.199219 C 347.570312 690.03125 283.546875 672.050781 229.410156 636.957031 C 154.765625 588.566406 100.296875 510.203125 80.714844 422.71875 C 54.480469 305.507812 92.496094 175.761719 181.839844 92.125 C 242.972656 34.898438 325.5625 1.503906 410.085938 1.09375 Z M 411.445312 12.191406 L 411.445312 15.882812 L 410.132812 15.882812 C 295.878906 16.441406 185.390625 82.085938 128.894531 183.421875 C 75.085938 279.933594 72.929688 403.765625 126.035156 503.207031 C 171.632812 588.578125 256.429688 652.460938 351.808594 670.445312 C 371.488281 674.15625 391.472656 675.898438 411.445312 675.757812 L 411.445312 679.664062 L 411.175781 679.664062 C 311.957031 679.664062 214.582031 631.421875 153.160156 551.914062 C 83.5625 461.820312 63.980469 335.75 104.488281 227.417969 C 150.390625 104.664062 271.246094 12.867188 410.117188 12.191406 Z M 411.445312 22.929688 L 411.445312 26.625 L 410.164062 26.625 C 297.621094 27.167969 189.144531 93.007812 135.316406 193.773438 C 84.789062 288.367188 84.878906 408.386719 138.546875 503.988281 C 182.96875 583.117188 262.570312 642.097656 351.820312 659.515625 C 371.464844 663.355469 391.457031 665.148438 411.445312 664.992188 L 411.445312 668.441406 C 351.59375 668.296875 291.65625 651.421875 240.917969 618.53125 C 171.195312 573.324219 120.347656 500.257812 101.859375 418.828125 C 80.851562 326.320312 101.96875 225 159.707031 148.871094 C 218.058594 71.921875 312.195312 23.40625 410.152344 22.929688 Z M 411.445312 33.320312 L 411.445312 37.019531 L 410.199219 37.019531 C 302.015625 37.539062 196.648438 100.730469 144.296875 198.726562 C 88.507812 303.148438 97.902344 439.554688 171.855469 535.878906 C 228.164062 609.226562 318.492188 654.84375 411.175781 654.84375 L 411.445312 654.839844 L 411.445312 658.320312 C 335.453125 657.886719 259.5 628.65625 203.269531 576.007812 C 140.75 517.488281 104.210938 432.539062 103.941406 346.941406 C 103.617188 244.175781 156.273438 142.0625 243.285156 84.144531 C 292.347656 51.484375 351.015625 33.609375 410.183594 33.320312 Z M 411.445312 43.375 L 411.445312 47.070312 L 410.230469 47.070312 C 291.507812 47.640625 178.296875 126.15625 135.972656 241.492188 C 95.636719 351.390625 124.480469 483.53125 212.480469 565.914062 C 265.71875 615.753906 338.203125 644.175781 411.445312 644.585938 L 411.445312 648.214844 C 323.390625 647.53125 235.714844 606.53125 179.488281 535.507812 C 106.324219 443.082031 93.132812 307.726562 149.726562 201.773438 C 199.601562 108.398438 299.734375 43.910156 410.21875 43.375 Z M 411.445312 53.109375 L 411.445312 56.800781 L 410.257812 56.800781 C 310.007812 57.285156 212.921875 114.992188 163.46875 204.328125 C 129.492188 265.703125 118.800781 339.703125 133.773438 408.570312 C 153.476562 499.222656 218.941406 578.980469 305.449219 614.34375 C 339.035156 628.070312 375.234375 634.742188 411.445312 634.582031 L 411.445312 638.269531 C 356.835938 638.128906 302.160156 622.652344 256.09375 592.585938 C 192.375 551 146.292969 483.574219 130.160156 409.359375 C 108.574219 310.027344 141.46875 200.570312 216.425781 130.410156 C 268.355469 81.804688 338.472656 53.453125 410.25 53.109375 Z M 411.445312 62.519531 L 411.445312 66.21875 L 410.292969 66.21875 C 299.488281 66.753906 192.757812 140.472656 153.3125 248.984375 C 116.015625 351.566406 142.847656 474.722656 225.210938 551.820312 C 275.167969 598.589844 342.988281 625.113281 411.445312 625.472656 L 411.445312 629.335938 L 411.175781 629.335938 C 298.375 629.335938 189.808594 554.082031 149.835938 444.136719 C 112.117188 340.378906 139.234375 215.457031 222.6875 137.339844 C 273.003906 90.238281 340.8125 62.859375 410.277344 62.519531 L 411.445312 62.519531 " fill-opacity="1" fill-rule="evenodd"/></g></svg>
